**kern	**silbe	**kern	**silbe	**harmony	**phrase	**leadinstrument	**rhyme	**timestamp	**harte
*ICvox	*	*ICvox	*	*M4/4	*	*	*	*	*M4/4
*VRlead	*	*VRharmonize	*	*	*	*	*	*	*
*Hstimme	*	*Nstimme	*	*	*	*	*	*	*
*F:	*	*F:	*	*F:	*	*	*	*	*F:
*M4/4	*	*M4/4	*	*	*	*	*	*	*
*clefG2	*	*clefG2	*	*	*	*	*	*	*
r;	.	r;	.	1r;	.	r	.	0	N.C.
=1	=1	=1	=1	=1	=1	=1	=1	=1	=1
*>Letter>A	*>Letter>A	*>Letter>A	*>Letter>A	*>Letter>A	*>Letter>A	*>Letter>A	*>Letter>A	*>Letter>A	*>Letter>A
*>Label>Intro	*>Label>Intro	*>Label>Intro	*>Label>Intro	*>Label>Intro	*>Label>Intro	*>Label>Intro	*>Label>Intro	*>Label>Intro	*>Label>Intro
1r	.	1r	.	1FM	newline	strings	.	1.592	F:maj
=2	=2	=2	=2	=2	=2	=2	=2	=2	=2
1r	.	1r	.	1FM	.	strings	.	3.639	F:maj
=3	=3	=3	=3	=3	=3	=3	=3	=3	=3
1r	.	1r	.	1FM	.	strings	.	5.686	F:maj
=4	=4	=4	=4	=4	=4	=4	=4	=4	=4
1r	.	1r	.	1FM	.	strings	.	7.733	F:maj
=5	=5	=5	=5	=5	=5	=5	=5	=5	=5
1r	.	1r	.	1FM	newline	strings	.	9.78	F:maj
=6	=6	=6	=6	=6	=6	=6	=6	=6	=6
1r	.	1r	.	1FM	.	strings	.	11.82	F:maj
=7	=7	=7	=7	=7	=7	=7	=7	=7	=7
1r	.	1r	.	1FM	.	strings	.	13.861	F:maj
=8	=8	=8	=8	=8	=8	=8	=8	=8	=8
1r	.	1r	.	1FMm	.	strings	.	15.902	F:7/b7
=9	=9	=9	=9	=9	=9	=9	=9	=9	=9
*>Letter>B	*>Letter>B	*>Letter>B	*>Letter>B	*>Letter>B	*>Letter>B	*>Letter>B	*>Letter>B	*>Letter>B	*>Letter>B
*>Label>Intro	*>Label>Intro	*>Label>Intro	*>Label>Intro	*>Label>Intro	*>Label>Intro	*>Label>Intro	*>Label>Intro	*>Label>Intro	*>Label>Intro
*M12/8	*	*M12/8	*	*M12/8	*	*	*	*	*M12/8
1.r	.	1.r	.	2.E-M	newline	piano	.	19.984	E-:maj
.	.	.	.	4.B-M	.	piano	.	21.531	B-:maj/5
.	.	.	.	4.FM	.	piano	.	22.304	F:maj
=10	=10	=10	=10	=10	=10	=10	=10	=10	=10
1.r	.	1.r	.	1.CM	.	piano	.	23.078	C:maj
=11	=11	=11	=11	=11	=11	=11	=11	=11	=11
1.r	.	1.r	.	4.B-M	newline	piano	.	26.171	B-:maj
.	.	.	.	4.CM	.	piano	.	26.949	C:maj/b7
.	.	.	.	2.Am	.	piano	.	27.727	A:min
=12	=12	=12	=12	=12	=12	=12	=12	=12	=12
1.r	.	1.r	.	2.GM	.	piano	.	29.282	G:sus2
.	.	.	.	2.GM	.	piano	.	30.837	G:maj
=13	=13	=13	=13	=13	=13	=13	=13	=13	=13
1.r	.	1.r	.	2.E-M	newline	strings	.	32.392	E-:maj
.	.	.	.	4.B-M	.	strings	.	33.983	B-:maj/5
.	.	.	.	4.FM	.	strings	.	34.778	F:maj
=14	=14	=14	=14	=14	=14	=14	=14	=14	=14
1.r	.	1.r	.	1.CM	.	strings	.	35.573	C:maj
=15	=15	=15	=15	=15	=15	=15	=15	=15	=15
1.r	.	1.r	.	4.B-M	newline	piano	.	38.755	B-:maj
.	.	.	.	4.CM	.	piano	.	39.552	C:maj/b7
.	.	.	.	2.Am	.	piano	.	40.349	A:min
=16	=16	=16	=16	=16	=16	=16	=16	=16	=16
1.r	.	1.r	.	2.GM	.	piano	.	41.943	G:sus2
.	.	.	.	2.GM	.	piano	.	43.537	G:maj
=17	=17	=17	=17	=17	=17	=17	=17	=17	=17
2.r	.	1.r	.	2.FM	newline	strings	.	45.131	F:maj
4.r	.	.	.	2.CM	.	strings	.	46.597	C:maj
4r	.	.	.	.	.	.	.	.	.
8c	It's	.	.	.	.	.	.	.	.
=18	=18	=18	=18	=18	=18	=18	=18	=18	=18
*>Letter>C	*>Letter>C	*>Letter>C	*>Letter>C	*>Letter>C	*>Letter>C	*>Letter>C	*>Letter>C	*>Letter>C	*>Letter>C
*>Label>Verse	*>Label>Verse	*>Label>Verse	*>Label>Verse	*>Label>Verse	*>Label>Verse	*>Label>Verse	*>Label>Verse	*>Label>Verse	*>Label>Verse
*	*	*	*	*M6/4	*	*	*	*	*M6/4
8d	fun-	1.r	.	2.B-M	newline	voice	.	48.064	B-:maj
4.d	-ny	.	.	.	.	.	.	.	.
4d	that	.	.	.	.	.	.	.	.
2.c	way	.	.	2.Dmm	.	voice	A	49.595	D:min7
=19	=19	=19	=19	=19	=19	=19	=19	=19	=19
4c	You	1.r	.	2.FM	.	voice	.	51.126	F:maj
4c	can	.	.	.	.	.	.	.	.
4f	get	.	.	.	.	.	.	.	.
4g	used	.	.	2.CM	.	voice	.	52.657	C:maj
4e	to	.	.	.	.	.	.	.	.
8c	the	.	.	.	.	.	.	.	.
8r	.	.	.	.	.	.	.	.	.
=20	=20	=20	=20	=20	=20	=20	=20	=20	=20
4e-	tears	1.r	.	2.E-M	newline	voice	.	54.188	E-:maj
4e-	and	.	.	.	.	.	.	.	.
8f	the	.	.	.	.	.	.	.	.
8c	pain	.	.	.	.	.	A	.	.
4.d	_	.	.	2.B-M	.	voice	.	55.766	B-:maj
4.r	.	.	.	.	.	.	.	.	.
=21	=21	=21	=21	=21	=21	=21	=21	=21	=21
2a	What	1.r	.	2.FM	.	voice	.	57.344	F:maj
4a	a	.	.	.	.	.	.	.	.
4g	child	.	.	2.CM	.	voice	.	58.923	C:maj
4f	will	.	.	.	.	.	.	.	.
8e	be-	.	.	.	.	.	.	.	.
[8f	-lieve	.	.	.	.	.	B	.	.
=22	=22	=22	=22	=22	=22	=22	=22	=22	=22
2.f]	_	1.r	.	2.Dm	newline	voice	.	60.501	D:min
4r	.	.	.	2.B-M	.	voice	.	62.03	B-:maj/3
4.a	You	.	.	.	.	.	.	.	.
16g	ne-	.	.	.	.	.	.	.	.
16f	-ver	.	.	.	.	.	.	.	.
=23	=23	=23	=23	=23	=23	=23	=23	=23	=23
4e	loved	1.r	.	4CM	.	voice	.	63.56	C:maj
[4f	me	.	.	2FM	.	voice	B	63.942	F:maj/5
1f]	_	.	.	.	.	.	.	.	.
.	.	.	.	2.FM	.	voice	.	65.089	F:maj/5
=24	=24	=24	=24	=24	=24	=24	=24	=24	=24
*>Letter>B	*>Letter>B	*>Letter>B	*>Letter>B	*>Letter>B	*>Letter>B	*>Letter>B	*>Letter>B	*>Letter>B	*>Letter>B
*>Label>Chorus	*>Label>Chorus	*>Label>Chorus	*>Label>Chorus	*>Label>Chorus	*>Label>Chorus	*>Label>Chorus	*>Label>Chorus	*>Label>Chorus	*>Label>Chorus
*	*	*	*	*M12/8	*	*	*	*	*M12/8
1.r	.	4.f	You	2.E-M	newline	voice	.	66.618	E-:maj
.	.	4.g	can't	.	.	.	.	.	.
.	.	4.b-	hurt	4.B-M	.	voice	.	68.179	B-:maj/5
.	.	4.a	me	4.FM	.	voice	.	68.959	F:maj
=25	=25	=25	=25	=25	=25	=25	=25	=25	=25
2.r	.	[2.e	now	1.CM	.	voice	.	69.739	C:maj
4.r	.	4.e]	_	.	.	.	.	.	.
8d	I	4.r	.	.	.	.	.	.	.
8d	got	.	.	.	.	.	.	.	.
8c	a-	.	.	.	.	.	.	.	.
=26	=26	=26	=26	=26	=26	=26	=26	=26	=26
8d	-way	1.r	.	4.B-M	newline	voice	.	72.86	B-:maj
8c	from	.	.	.	.	.	.	.	.
[8c	you	.	.	.	.	.	.	.	.
4.c_	_	.	.	4.CM	.	voice	.	73.629	C:maj/b7
8c]	_	.	.	2.Am	.	voice	.	74.398	A:min
8r	.	.	.	.	.	.	.	.	.
8r	.	.	.	.	.	.	.	.	.
8e	I	.	.	.	.	.	.	.	.
8d	ne-	.	.	.	.	.	.	.	.
8c	-ver	.	.	.	.	.	.	.	.
=27	=27	=27	=27	=27	=27	=27	=27	=27	=27
4d	thought	1.r	.	1.GM	.	voice	.	75.935	G:maj
[8B	I	.	.	.	.	.	.	.	.
4B]	_	.	.	.	.	.	.	.	.
[8d	would	.	.	.	.	.	C	.	.
4.d_	_	.	.	.	.	.	.	.	.
8d]	_	.	.	.	.	.	.	.	.
4r	.	.	.	.	.	.	.	.	.
=28	=28	=28	=28	=28	=28	=28	=28	=28	=28
1.r	.	4.f	You	2.E-M	newline	voice	.	79.01	E-:maj
.	.	4.g	can't	.	.	.	.	.	.
.	.	4.b-	make	4.B-M	.	voice	.	80.57	B-:maj/5
.	.	4.a	me	4.FM	.	voice	.	81.35	F:maj
=29	=29	=29	=29	=29	=29	=29	=29	=29	=29
2.r	.	[2.e	cry	1.CM	.	voice	.	82.13	C:maj
4r	.	4.e]	_	.	.	.	.	.	.
8c	You	.	.	.	.	.	.	.	.
8d	once	4.r	.	.	.	.	.	.	.
8d	had	.	.	.	.	.	.	.	.
8c	the	.	.	.	.	.	.	.	.
=30	=30	=30	=30	=30	=30	=30	=30	=30	=30
4d	po-	1.r	.	4.B-M	newline	voice	.	85.25	B-:maj
[8c	-wer	.	.	.	.	.	.	.	.
4.c_	_	.	.	4.CM	.	voice	.	86.027	C:maj/b7
8c]	_	.	.	2.Am	.	voice	.	86.803	A:min
4r	.	.	.	.	.	.	.	.	.
8e	I	.	.	.	.	.	.	.	.
8d	ne-	.	.	.	.	.	.	.	.
8c	-ver	.	.	.	.	.	.	.	.
=31	=31	=31	=31	=31	=31	=31	=31	=31	=31
4d	felt	1.r	.	1.GM	.	voice	.	88.356	G:maj
[8B	so	.	.	.	.	.	.	.	.
8B]	_	.	.	.	.	.	.	.	.
[4d	good	.	.	.	.	.	C	.	.
8.d]	_	.	.	.	.	.	.	.	.
16c	a-	.	.	.	.	.	.	.	.
4d	-bout	.	.	.	.	.	.	.	.
4d	my-	.	.	.	.	.	.	.	.
=32	=32	=32	=32	=32	=32	=32	=32	=32	=32
*M6/4	*	*M6/4	*	*M6/4	*	*	*	*	*M6/4
[1c	-self	1.r	.	2.FM	newline	voice	.	91.461	F:maj
.	.	.	.	2.CM	.	voice	.	93.004	C:maj
4c]	_	.	.	.	.	.	.	.	.
4r	.	.	.	.	.	.	.	.	.
=33	=33	=33	=33	=33	=33	=33	=33	=33	=33
*>Letter>C	*>Letter>C	*>Letter>C	*>Letter>C	*>Letter>C	*>Letter>C	*>Letter>C	*>Letter>C	*>Letter>C	*>Letter>C
*>Label>Verse	*>Label>Verse	*>Label>Verse	*>Label>Verse	*>Label>Verse	*>Label>Verse	*>Label>Verse	*>Label>Verse	*>Label>Verse	*>Label>Verse
4d	Seems	1.r	.	2.B-M	newline	voice	.	94.547	B-:maj
4d	like	.	.	.	.	.	.	.	.
8d	yes-	.	.	.	.	.	.	.	.
8c	-ter-	.	.	.	.	.	.	.	.
2c	-day	.	.	2.Dmm	.	voice	A	96.109	D:min7
4r	.	.	.	.	.	.	.	.	.
=34	=34	=34	=34	=34	=34	=34	=34	=34	=34
4c	I	1.r	.	2.FM	.	voice	.	97.671	F:maj
4c	lay	.	.	.	.	.	.	.	.
4f	down	.	.	.	.	.	.	.	.
4g	next	.	.	2.CM	.	voice	.	99.233	C:maj
4e	to	.	.	.	.	.	.	.	.
8c	your	.	.	.	.	.	.	.	.
8r	.	.	.	.	.	.	.	.	.
=35	=35	=35	=35	=35	=35	=35	=35	=35	=35
4e-	boots	1.r	.	2.E-M	newline	voice	.	100.795	E-:maj
4e-	and	.	.	.	.	.	.	.	.
4f	I	.	.	.	.	.	.	.	.
2d	prayed	.	.	2.B-M	.	voice	A	102.335	B-:maj
4r	.	.	.	.	.	.	.	.	.
=36	=36	=36	=36	=36	=36	=36	=36	=36	=36
2a	For	1.r	.	2.FM	.	voice	.	103.875	F:maj
4a	your	.	.	.	.	.	.	.	.
4g	ang-	.	.	2.CM	.	voice	.	105.415	C:maj
4f	-er	.	.	.	.	.	.	.	.
8e	to	.	.	.	.	.	.	.	.
[8f	end	.	.	.	.	.	D	.	.
=37	=37	=37	=37	=37	=37	=37	=37	=37	=37
2.f]	_	1.r	.	2.Dm	newline	voice	.	106.955	D:min
8.r	.	.	.	2.B-M	.	voice	.	108.498	B-:maj/3
16g	Oh	.	.	.	.	.	.	.	.
4a	_	.	.	.	.	.	.	.	.
8g	fa-	.	.	.	.	.	.	.	.
8f	-ther	.	.	.	.	.	.	.	.
=38	=38	=38	=38	=38	=38	=38	=38	=38	=38
4e	I	1.r	.	4CM	.	voice	.	110.041	C:maj
4f	have	.	.	2FM	.	voice	.	110.427	F:maj/5
[4f	sinned	.	.	.	.	.	D	.	.
2f]	_	.	.	2.FM	.	voice	.	111.584	F:maj/5
4r	.	.	.	.	.	.	.	.	.
=39	=39	=39	=39	=39	=39	=39	=39	=39	=39
*>Letter>B	*>Letter>B	*>Letter>B	*>Letter>B	*>Letter>B	*>Letter>B	*>Letter>B	*>Letter>B	*>Letter>B	*>Letter>B
*>Label>Chorus	*>Label>Chorus	*>Label>Chorus	*>Label>Chorus	*>Label>Chorus	*>Label>Chorus	*>Label>Chorus	*>Label>Chorus	*>Label>Chorus	*>Label>Chorus
*	*	*	*	*M12/8	*	*	*	*	*M12/8
1.r	.	4.f	You	2.E-M	newline	voice	.	113.127	E-:maj
.	.	4.g	can't	.	.	.	.	.	.
.	.	4.b-	hurt	4.B-M	.	voice	.	114.704	B-:maj/5
.	.	4.a	me	4.FM	.	voice	.	115.492	F:maj
=40	=40	=40	=40	=40	=40	=40	=40	=40	=40
2.r	.	[2.e	now	1.CM	.	voice	.	116.281	C:maj
4.r	.	4.e]	_	.	.	.	.	.	.
8d	I	4.r	.	.	.	.	.	.	.
8d	got	.	.	.	.	.	.	.	.
8c	a-	.	.	.	.	.	.	.	.
=41	=41	=41	=41	=41	=41	=41	=41	=41	=41
8d	-way	1.r	.	4.B-M	newline	voice	.	119.434	B-:maj
8c	from	.	.	.	.	.	.	.	.
[8c	you	.	.	.	.	.	.	.	.
4.c_	_	.	.	4.CM	.	voice	.	120.199	C:maj/b7
8c]	_	.	.	2.Am	.	voice	.	120.964	A:min
4r	.	.	.	.	.	.	.	.	.
8e	I	.	.	.	.	.	.	.	.
8d	ne-	.	.	.	.	.	.	.	.
8c	-ver	.	.	.	.	.	.	.	.
=42	=42	=42	=42	=42	=42	=42	=42	=42	=42
4d	thought	1.r	.	1.GM	.	voice	.	122.493	G:maj
[8B	I	.	.	.	.	.	.	.	.
4B]	_	.	.	.	.	.	.	.	.
[8d	would	.	.	.	.	.	C	.	.
4.d_	_	.	.	.	.	.	.	.	.
8d]	_	.	.	.	.	.	.	.	.
4r	.	.	.	.	.	.	.	.	.
=43	=43	=43	=43	=43	=43	=43	=43	=43	=43
1.r	.	4.f	You	2.E-M	newline	voice	.	125.551	E-:maj
.	.	4.g	can't	.	.	.	.	.	.
.	.	4.b-	make	4.B-M	.	voice	.	127.115	B-:maj/5
.	.	4.a	me	4.FM	.	voice	.	127.897	F:maj
=44	=44	=44	=44	=44	=44	=44	=44	=44	=44
2.r	.	[2.e	cry	1.CM	.	voice	.	128.68	C:maj
4r	.	4.e]	_	.	.	.	.	.	.
8c	You	.	.	.	.	.	.	.	.
8d	once	4.r	.	.	.	.	.	.	.
8d	had	.	.	.	.	.	.	.	.
8c	the	.	.	.	.	.	.	.	.
=45	=45	=45	=45	=45	=45	=45	=45	=45	=45
4d	po-	1.r	.	4.B-M	newline	voice	.	131.808	B-:maj
[8c	-wer	.	.	.	.	.	.	.	.
4.c_	_	.	.	4.CM	.	voice	.	132.585	C:maj/b7
8c]	_	.	.	2.Am	.	voice	.	133.362	A:min
4r	.	.	.	.	.	.	.	.	.
8e	I	.	.	.	.	.	.	.	.
8d	ne-	.	.	.	.	.	.	.	.
8c	-ver	.	.	.	.	.	.	.	.
=46	=46	=46	=46	=46	=46	=46	=46	=46	=46
4d	felt	1.r	.	1.GM	.	voice	.	134.916	G:maj
[8B	so	.	.	.	.	.	.	.	.
8B]	_	.	.	.	.	.	.	.	.
[4d	good	.	.	.	.	.	C	.	.
8.d]	_	.	.	.	.	.	.	.	.
16c	a-	.	.	.	.	.	.	.	.
4d	-bout	.	.	.	.	.	.	.	.
4d	my-	.	.	.	.	.	.	.	.
=47	=47	=47	=47	=47	=47	=47	=47	=47	=47
*>Letter>D	*>Letter>D	*>Letter>D	*>Letter>D	*>Letter>D	*>Letter>D	*>Letter>D	*>Letter>D	*>Letter>D	*>Letter>D
*>Label>Interlude	*>Label>Interlude	*>Label>Interlude	*>Label>Interlude	*>Label>Interlude	*>Label>Interlude	*>Label>Interlude	*>Label>Interlude	*>Label>Interlude	*>Label>Interlude
[1c	-self	1.r	.	1.Am	newline	synth	.	138.024	A:min
4c]	_	.	.	.	.	.	.	.	.
4r	.	.	.	.	.	.	.	.	.
=48	=48	=48	=48	=48	=48	=48	=48	=48	=48
1.r	.	1.r	.	2.GM	.	synth	.	141.134	G:maj
.	.	.	.	2.CM	.	synth	.	142.689	C:maj
=49	=49	=49	=49	=49	=49	=49	=49	=49	=49
1.r	.	1.r	.	2.GM	newline	synth	.	144.244	G:maj
.	.	.	.	2.Em	.	synth	.	145.789	E:min
=50	=50	=50	=50	=50	=50	=50	=50	=50	=50
1.r	.	1.r	.	2.FM	.	synth	.	147.334	F:maj
.	.	.	.	2.CM	.	synth	.	148.879	C:maj
=51	=51	=51	=51	=51	=51	=51	=51	=51	=51
1.r	.	1.r	.	1.Am	newline	synth	.	150.424	A:min
=52	=52	=52	=52	=52	=52	=52	=52	=52	=52
1.r	.	1.r	.	2.GM	.	synth	.	153.64	G:maj
.	.	.	.	2.CM	.	synth	.	155.248	C:maj
=53	=53	=53	=53	=53	=53	=53	=53	=53	=53
1.r	.	1.r	.	2.GM	newline	synth	.	156.856	G:maj
.	.	.	.	2.Em	.	synth	.	158.352	E:min
=54	=54	=54	=54	=54	=54	=54	=54	=54	=54
1.r	.	1.r	.	2.FM	.	synth	.	159.848	F:maj
.	.	.	.	2.CM	.	synth	.	161.344	C:maj
=55	=55	=55	=55	=55	=55	=55	=55	=55	=55
*>Letter>D	*>Letter>D	*>Letter>D	*>Letter>D	*>Letter>D	*>Letter>D	*>Letter>D	*>Letter>D	*>Letter>D	*>Letter>D
*>Label>Bridge	*>Label>Bridge	*>Label>Bridge	*>Label>Bridge	*>Label>Bridge	*>Label>Bridge	*>Label>Bridge	*>Label>Bridge	*>Label>Bridge	*>Label>Bridge
2.B	Oh	1.r	.	1.Am	newline	voice	.	162.84	A:min
4B	fa-	.	.	.	.	.	.	.	.
4G	-ther	.	.	.	.	.	.	.	.
4r	.	.	.	.	.	.	.	.	.
=56	=56	=56	=56	=56	=56	=56	=56	=56	=56
8B	You	8d	You	2.GM	.	voice	.	165.918	G:maj
8B	ne-	8d	ne-	.	.	.	.	.	.
8B	-ver	8d	-ver	.	.	.	.	.	.
8c	wan-	8e	wan-	.	.	.	.	.	.
8B	-ted	8d	-ted	.	.	.	.	.	.
8B	to	8d	to	.	.	.	.	.	.
8B	live	8d	live	2.CM	.	voice	.	167.457	C:maj
8G	that	8B	that	.	.	.	.	.	.
4G	way	4B	way	.	.	.	A	.	.
4r	.	4r	.	.	.	.	.	.	.
=57	=57	=57	=57	=57	=57	=57	=57	=57	=57
8B	You	8d	You	2.GM	newline	voice	.	168.996	G:maj
8B	ne-	8d	ne-	.	.	.	.	.	.
8B	-ver	8d	-ver	.	.	.	.	.	.
8c	wan-	8e	wan-	.	.	.	.	.	.
8B	-ted	8d	-ted	.	.	.	.	.	.
8B	to	8d	to	.	.	.	.	.	.
4B	hurt	4d	hurt	2.Em	.	voice	.	170.563	E:min
4G	me	4B	me	.	.	.	.	.	.
4r	.	4r	.	.	.	.	.	.	.
=58	=58	=58	=58	=58	=58	=58	=58	=58	=58
8A	Why	8c	Why	2.FM	.	voice	.	172.131	F:maj
8A	am	8c	am	.	.	.	.	.	.
8A	I	8c	I	.	.	.	.	.	.
8B	run-	8d	run-	.	.	.	.	.	.
8A	-ning	8c	-ning	.	.	.	.	.	.
8G	a-	8c	a-	.	.	.	.	.	.
4.G	-way	4.c	-way	2.CM	.	voice	A	173.698	C:maj
4.r	.	4.r	.	.	.	.	.	.	.
=59	=59	=59	=59	=59	=59	=59	=59	=59	=59
2.B	Oh	1.r	.	1.Am	newline	voice	.	175.265	A:min
4B	fa-	.	.	.	.	.	.	.	.
4G	-ther	.	.	.	.	.	.	.	.
4r	.	.	.	.	.	.	.	.	.
=60	=60	=60	=60	=60	=60	=60	=60	=60	=60
8B	You	8d	You	2.GM	.	voice	.	178.392	G:maj
8B	ne-	8d	ne-	.	.	.	.	.	.
8B	-ver	8d	-ver	.	.	.	.	.	.
8c	wan-	8e	wan-	.	.	.	.	.	.
8B	-ted	8d	-ted	.	.	.	.	.	.
8B	to	8d	to	.	.	.	.	.	.
8B	live	8d	live	2.CM	.	voice	.	179.955	C:maj
8G	that	8B	that	.	.	.	.	.	.
4G	way	4B	way	.	.	.	A	.	.
4r	.	4r	.	.	.	.	.	.	.
=61	=61	=61	=61	=61	=61	=61	=61	=61	=61
8B	You	8d	You	2.GM	newline	voice	.	181.518	G:maj
8B	ne-	8d	ne-	.	.	.	.	.	.
8B	-ver	8d	-ver	.	.	.	.	.	.
8c	wan-	8e	wan-	.	.	.	.	.	.
8B	-ted	8d	-ted	.	.	.	.	.	.
8B	to	8d	to	.	.	.	.	.	.
4B	hurt	4d	hurt	2.Em	.	voice	.	183.055	E:min
4G	me	4B	me	.	.	.	.	.	.
4r	.	4r	.	.	.	.	.	.	.
=62	=62	=62	=62	=62	=62	=62	=62	=62	=62
8A	Why	8c	Why	2.FM	.	voice	.	184.592	F:maj
8A	am	8c	am	.	.	.	.	.	.
8A	I	8c	I	.	.	.	.	.	.
8B	run-	8d	run-	.	.	.	.	.	.
8A	-ning	8c	-ning	.	.	.	.	.	.
8G	a-	8c	a-	.	.	.	.	.	.
2.G	-way	2.c	-way	2.CM	.	voice	A	186.129	C:maj
=63	=63	=63	=63	=63	=63	=63	=63	=63	=63
*M6/4	*	*M6/4	*	*M6/4	*	*	*	*	*M6/4
1.r	.	1.r	.	2.FM	newline	voice	.	187.666	F:maj
.	.	.	.	2.CM	.	voice	.	189.206	C:maj
=64	=64	=64	=64	=64	=64	=64	=64	=64	=64
*>Letter>C	*>Letter>C	*>Letter>C	*>Letter>C	*>Letter>C	*>Letter>C	*>Letter>C	*>Letter>C	*>Letter>C	*>Letter>C
*>Label>Verse	*>Label>Verse	*>Label>Verse	*>Label>Verse	*>Label>Verse	*>Label>Verse	*>Label>Verse	*>Label>Verse	*>Label>Verse	*>Label>Verse
4d	May-	1.r	.	2.B-M	newline	voice	.	190.747	B-:maj
4d	-be	.	.	.	.	.	.	.	.
8d	some-	.	.	.	.	.	.	.	.
8c	_	.	.	.	.	.	.	.	.
2c	-day	.	.	2.Dmm	.	voice	A	192.311	D:min7
4r	.	.	.	.	.	.	.	.	.
=65	=65	=65	=65	=65	=65	=65	=65	=65	=65
4c	When	1.r	.	2.FM	.	voice	.	193.875	F:maj
4c	I	.	.	.	.	.	.	.	.
4f	look	.	.	.	.	.	.	.	.
4g	back	.	.	2.CM	.	voice	.	195.439	C:maj
4e	I'll	.	.	.	.	.	.	.	.
8c	be	.	.	.	.	.	.	.	.
8r	.	.	.	.	.	.	.	.	.
=66	=66	=66	=66	=66	=66	=66	=66	=66	=66
4e-	a-	1.r	.	2.E-M	newline	voice	.	197.003	E-:maj
4e-	-ble	.	.	.	.	.	.	.	.
8f	to	.	.	.	.	.	.	.	.
8c	say	.	.	.	.	.	A	.	.
2d	_	.	.	2.B-M	.	voice	.	198.553	B-:maj
4r	.	.	.	.	.	.	.	.	.
=67	=67	=67	=67	=67	=67	=67	=67	=67	=67
2a	You	1.r	.	2.FM	.	voice	.	200.103	F:maj
8a	did-	.	.	.	.	.	.	.	.
8a	-'nt	.	.	.	.	.	.	.	.
4g	mean	.	.	2.CM	.	voice	.	201.653	C:maj
4f	to	.	.	.	.	.	.	.	.
8e	be	.	.	.	.	.	.	.	.
[8f	cruel	.	.	.	.	.	E	.	.
=68	=68	=68	=68	=68	=68	=68	=68	=68	=68
2.f]	_	1.r	.	2.Dm	newline	voice	.	203.203	D:min
8r	.	.	.	2.B-M	.	voice	.	204.773	B-:maj/3
4a	Some-	.	.	.	.	.	.	.	.
8g	-bo-	.	.	.	.	.	.	.	.
8f	-dy	.	.	.	.	.	.	.	.
[8e	hurt	.	.	.	.	.	.	.	.
=69	=69	=69	=69	=69	=69	=69	=69	=69	=69
8e]	_	1.r	.	4CM	.	voice	.	206.343	C:maj
4f	you	.	.	.	.	.	.	.	.
.	.	.	.	2FM	.	voice	.	206.736	F:maj/5
[4.f	too	.	.	.	.	.	E	.	.
2.f]	_	.	.	2.FM	.	voice	.	207.913	F:maj/5
=70	=70	=70	=70	=70	=70	=70	=70	=70	=70
*>Letter>B	*>Letter>B	*>Letter>B	*>Letter>B	*>Letter>B	*>Letter>B	*>Letter>B	*>Letter>B	*>Letter>B	*>Letter>B
*>Label>Chorus	*>Label>Chorus	*>Label>Chorus	*>Label>Chorus	*>Label>Chorus	*>Label>Chorus	*>Label>Chorus	*>Label>Chorus	*>Label>Chorus	*>Label>Chorus
*	*	*	*	*M12/8	*	*	*	*	*M12/8
4.f	You	4.b-	You	2.E-M	newline	voice	.	209.483	E-:maj
4.g	can't	4.b-	can't	.	.	.	.	.	.
4.b-	hurt	4.b-	hurt	4.B-M	.	voice	.	211.009	B-:maj/5
4.a	me	4.cc	me	4.FM	.	voice	.	211.772	F:maj
=71	=71	=71	=71	=71	=71	=71	=71	=71	=71
[2.e	now	[2.g	now	1.CM	.	voice	.	212.535	C:maj
4.e]	_	4.g]	_	.	.	.	.	.	.
8d	I	4.r	.	.	.	.	.	.	.
8d	got	.	.	.	.	.	.	.	.
8c	a-	.	.	.	.	.	.	.	.
=72	=72	=72	=72	=72	=72	=72	=72	=72	=72
8d	-way	1.r	.	4.B-M	newline	voice	.	215.587	B-:maj
8c	from	.	.	.	.	.	.	.	.
[8c	you	.	.	.	.	.	E	.	.
4.c_	_	.	.	4.CM	.	voice	.	216.374	C:maj/b7
8c]	_	.	.	2.Am	.	voice	.	217.161	A:min
4r	.	.	.	.	.	.	.	.	.
8e	I	.	.	.	.	.	.	.	.
8d	ne-	.	.	.	.	.	.	.	.
8c	-ver	.	.	.	.	.	.	.	.
=73	=73	=73	=73	=73	=73	=73	=73	=73	=73
4d	thought	1.r	.	1.GM	.	voice	.	218.735	G:maj
[8B	I	.	.	.	.	.	.	.	.
4B]	_	.	.	.	.	.	.	.	.
[8d	would	.	.	.	.	.	C	.	.
4.d_	_	.	.	.	.	.	.	.	.
8d]	_	.	.	.	.	.	.	.	.
4r	.	.	.	.	.	.	.	.	.
=74	=74	=74	=74	=74	=74	=74	=74	=74	=74
4.f	You	4.b-	You	2.E-M	newline	voice	.	221.883	E-:maj
4.g	can't	4.b-	can't	.	.	.	.	.	.
4.b-	make	4.b-	make	4.B-M	.	voice	.	223.429	B-:maj/5
4.a	me	4.cc	me	4.FM	.	voice	.	224.202	F:maj
=75	=75	=75	=75	=75	=75	=75	=75	=75	=75
[2.e	cry	[2.cc	cry	1.CM	.	voice	.	224.975	C:maj
4e]	_	4.cc]	_	.	.	.	.	.	.
8c	You	.	.	.	.	.	.	.	.
8d	once	4.r	.	.	.	.	.	.	.
8d	had	.	.	.	.	.	.	.	.
8c	the	.	.	.	.	.	.	.	.
=76	=76	=76	=76	=76	=76	=76	=76	=76	=76
4d	po-	1.r	.	4.B-M	newline	voice	.	228.067	B-:maj
[8c	-wer	.	.	.	.	.	.	.	.
4.c_	_	.	.	4.CM	.	voice	.	228.845	C:maj/b7
8c]	_	.	.	2.Am	.	voice	.	229.623	A:min
4r	.	.	.	.	.	.	.	.	.
8e	I	.	.	.	.	.	.	.	.
8d	ne-	.	.	.	.	.	.	.	.
8c	-ver	.	.	.	.	.	.	.	.
=77	=77	=77	=77	=77	=77	=77	=77	=77	=77
4d	felt	1.r	.	1.GM	.	voice	.	231.179	G:maj
[8B	so	.	.	.	.	.	.	.	.
8B]	_	.	.	.	.	.	.	.	.
[4d	good	.	.	.	.	.	C	.	.
4.d_	_	.	.	.	.	.	.	.	.
8d]	_	.	.	.	.	.	.	.	.
4r	.	.	.	.	.	.	.	.	.
=78	=78	=78	=78	=78	=78	=78	=78	=78	=78
4.f	You	4.b-	You	2.E-M	newline	voice	.	234.291	E-:maj
4.g	can't	4.b-	can't	.	.	.	.	.	.
4.b-	hurt	4.b-	hurt	4.B-M	.	voice	.	235.837	B-:maj/5
4.a	me	4.cc	me	4.FM	.	voice	.	236.61	F:maj
=79	=79	=79	=79	=79	=79	=79	=79	=79	=79
[2.e	now	[2.g	now	1.CM	.	voice	.	237.384	C:maj
4.e]	_	4.g]	_	.	.	.	.	.	.
8d	I	4.r	.	.	.	.	.	.	.
8d	got	.	.	.	.	.	.	.	.
8c	a-	.	.	.	.	.	.	.	.
=80	=80	=80	=80	=80	=80	=80	=80	=80	=80
8d	-way	1.r	.	4.B-M	newline	voice	.	240.476	B-:maj
8c	from	.	.	.	.	.	.	.	.
[8c	you	.	.	.	.	.	E	.	.
4.c_	_	.	.	4.CM	.	voice	.	241.254	C:maj/b7
8c]	_	.	.	2.Am	.	voice	.	242.032	A:min
4r	.	.	.	.	.	.	.	.	.
8e	I	.	.	.	.	.	.	.	.
8d	ne-	.	.	.	.	.	.	.	.
8c	-ver	.	.	.	.	.	.	.	.
=81	=81	=81	=81	=81	=81	=81	=81	=81	=81
4d	thought	1.r	.	1.GM	.	voice	.	243.587	G:maj
[8B	I	.	.	.	.	.	.	.	.
4B]	_	.	.	.	.	.	.	.	.
[8d	would	.	.	.	.	.	C	.	.
4.d_	_	.	.	.	.	.	.	.	.
8d]	_	.	.	.	.	.	.	.	.
4r	.	.	.	.	.	.	.	.	.
=82	=82	=82	=82	=82	=82	=82	=82	=82	=82
4.f	You	4.b-	You	2.E-M	newline	voice	.	246.698	E-:maj
4.g	can't	4.b-	can't	.	.	.	.	.	.
4.b-	make	4.b-	make	4.B-M	.	voice	.	248.246	B-:maj/5
4.a	me	4.cc	me	4.FM	.	voice	.	249.02	F:maj
=83	=83	=83	=83	=83	=83	=83	=83	=83	=83
[2.e	cry	[2.cc	cry	1.CM	.	voice	.	249.794	C:maj
4e]	_	4.cc]	_	.	.	.	.	.	.
8c	You	.	.	.	.	.	.	.	.
8d	once	4.r	.	.	.	.	.	.	.
8d	had	.	.	.	.	.	.	.	.
8c	the	.	.	.	.	.	.	.	.
=84	=84	=84	=84	=84	=84	=84	=84	=84	=84
4d	po-	1.r	.	4.B-M	newline	voice	.	252.89	B-:maj
[8c	-wer	.	.	.	.	.	.	.	.
4.c_	_	.	.	4.CM	.	voice	.	253.662	C:maj/b7
8c]	_	.	.	2.Am	.	voice	.	254.433	A:min
4r	.	.	.	.	.	.	.	.	.
8e	I	.	.	.	.	.	.	.	.
8d	ne-	.	.	.	.	.	.	.	.
8c	-ver	.	.	.	.	.	.	.	.
=85	=85	=85	=85	=85	=85	=85	=85	=85	=85
4d	felt	1.r	.	1.GM	.	voice	.	255.975	G:maj
[8B	so	.	.	.	.	.	.	.	.
8B]	_	.	.	.	.	.	.	.	.
[4d	good	.	.	.	.	.	C	.	.
8.d]	_	.	.	.	.	.	.	.	.
16c	a-	.	.	.	.	.	.	.	.
4d	-bout	.	.	.	.	.	.	.	.
4d	my-	.	.	.	.	.	.	.	.
=86	=86	=86	=86	=86	=86	=86	=86	=86	=86
1.f	-self	1.r	.	2.E-M	newline	voice	.	259.059	E-:maj
.	.	.	.	4.B-M	.	piano	.	260.613	B-:maj/5
.	.	.	.	4.FM	.	piano	.	261.39	F:maj
=87	=87	=87	=87	=87	=87	=87	=87	=87	=87
1.e	_	1.r	.	1.CM	.	piano	.	262.167	C:maj
=88	=88	=88	=88	=88	=88	=88	=88	=88	=88
1.r	.	1.r	.	4.B-M	newline	piano	.	265.274	B-:maj
.	.	.	.	4.CM	.	piano	.	266.067	C:maj/b7
.	.	.	.	2.Am	.	piano	.	266.861	A:min
=89	=89	=89	=89	=89	=89	=89	=89	=89	=89
1.r	.	1.r	.	1.GM	.	piano	.	268.447	G:maj
=90	=90	=90	=90	=90	=90	=90	=90	=90	=90
1.r	.	1.r	.	2.E-M	newline	guitar	.	271.619	E-:maj
.	.	.	.	4.B-M	.	guitar	.	273.201	B-:maj/5
.	.	.	.	4.FM	.	guitar	.	273.993	F:maj
=91	=91	=91	=91	=91	=91	=91	=91	=91	=91
1.r	.	1.r	.	1.CM	.	guitar	.	.	C:maj
=92	=92	=92	=92	=92	=92	=92	=92	=92	=92
1.r	.	1.r	.	4.B-M	newline	guitar	.	.	B-:maj
.	.	.	.	4.CM	.	guitar	.	.	C:maj/b7
.	.	.	.	2.Am	.	guitar	.	.	A:min
=93	=93	=93	=93	=93	=93	=93	=93	=93	=93
1.r	.	1.r	.	1.GM	.	guitar	.	.	G:maj
=94	=94	=94	=94	=94	=94	=94	=94	=94	=94
1.r	.	1.r	.	2.E-M	newline	guitar	.	.	E-:maj
.	.	.	.	4.B-M	.	guitar	.	.	B-:maj/5
.	.	.	.	4.FM	.	guitar	.	.	F:maj
=95	=95	=95	=95	=95	=95	=95	=95	=95	=95
1.r	.	1.r	.	1.CM	.	guitar	.	.	C:maj
=96	=96	=96	=96	=96	=96	=96	=96	=96	=96
1.r	.	1.r	.	4.B-M	newline	guitar	.	.	B-:maj
.	.	.	.	4.CM	.	guitar	.	.	C:maj/b7
.	.	.	.	2.Am	.	guitar	.	.	A:min
=97	=97	=97	=97	=97	=97	=97	=97	=97	=97
1.r	.	1.r	.	1.GM	.	guitar	.	.	G:maj
r;	.	r;	.	1.r;	.	r	.	292.784	N.C.
r;	.	r;	.	1.r;	.	r	.	298.817	N.C.
*-	*-	*-	*-	*-	*-	*-	*-	*-	*-
!!!BillboardChartDate: 1990/02/03
!!!BillboardPeak: 20
!!!BillboardWeeksOnChart: 13
!!!COC: Madonna
!!!EMD: Limitations on their harmonic-rhythm notation seems to have forced them to notate the meter/tempo weirdly. I've changed it to a 12/8-6/4. -Nat
!!!ENC: Nathaniel Condit-Schultz
!!!EST: Awating manual error checking and editing.
!!!OTL: Oh Father
!!!RDF**chordsym: original McGill chord annotation + (implied pitch class set, with bass pitch in first position)
!!!RDF**harmony: **recip + pitch class of root + harmonic quality
!!!RDF**leadinstrument: original McGill primary instrumentation annotation
!!!RDF**phrase: newline = linebreak in original McGill transcription
!!!RDF**timestamp: McGill audio timestamp in seconds
!!!RDT: 2017/01/12/
!!!SampleActualRank: 100
!!!SampleID#: 1140
!!!SampleTargetRank: 100
